!!!!SEGMENT: pl-kk--kk-i-201--004_anonim--virginis-partum-canimus.krn
!!!cenid: 16xx:758
!!!COM: Anonim
!!!COM-rismID: pe30004985
!!!CDT:
!!!CNT:
!!!OTL: Virginis partum canimus
!!!PDT:
!!!AGN: Sacred
!!!SMS-siglum: PL-Kk
!!!SMS-shelfmark: Kk.I.201
!!!SMS-shelfwork: 004 W
!!!SMS-variant:
!!!SMS-altvar:
!!!NIFC-rismSourceID: 1001143744
!!!NIFC-islandoraID: pl-kk:21943
!!!URL-pdf-islandora: https://repozytorium.nifc.pl/islandora/object/pl-kk%3A21943/datastream/PDF/view
!!!URL-scan:
!!!ONB-nifc: UWAGA: utwory w zbiorze: 1. Jesu Redemptor omnium, 2. Jesu corona celsior, 3. Virginis protes, 4. Virginis partum canimus, 5. Fortem virili pectore
!!!AIN: 1 empty
!!!key:
**kern	**text	**text	**text	**text
*Iempty	*	*	*	*
*I"Baſso Ripieno.	*	*	*	*
*I'B rip	*	*	*	*
*clefF4	*	*	*	*
*k[]	*	*	*	*
*c:	*	*	*	*
*M3/2	*	*	*	*
=1	=1	=1	=1	=1
*2\right	*	*	*	*
!LO:TX:t=P:problem=brak oznaczenia metrycznego	!	!	!	!
2.F\	1. Vi-	2. Cor-	3. Spi-	.
4E\	-gi-	-po-	-ri-	.
2D\	-nis	-ris	-tus	.
=2	=2	=2	=2	=2
1C/	par-	se-	sem-	.
2C/	-tes	-xum	-per	.
=3	=3	=3	=3	=3
2.G\	ca-	do-	De-	.
4E\	-ni-	-mu-	-us	.
2F\	-mus	-it	u-	.
=4	=4	=4	=4	=4
2D\	de-	cru-	-nus	.
1E\	-co-	-en-	om-	.
=5	=5	=5	=5	=5
2AA,</	-ra	-tum	-ni	.
2A\	mor-	cae-	Tem-	.
4G\	.	.	.	.
4F\	.	.	.	.
=6	=6	=6	=6	=6
1E\	-te	.	-po-	.
2F\	.	-de	-ris	.
=7	=7	=7	=7	=7
1G\	mor-	cae-	tem-	.
4F\	.	.	.	.
4E\	.	.	.	.
=8	=8	=8	=8	=8
2.D\	.	.	.	.
4E\	.	.	-po-	.
2F\	-te	-de	-ris	.
=9	=9	=9	=9	=9
2G\	Tri-	Ty-	ae-	.
2A\	-um-	.	.	.
2AA/	.	-ran-	.	.
=10	=10	=10	=10	=10
!LO:TX:b:t=Verta[tur]	!	!	!	!
!LO:TX:a:t=Vertat[ur]	!	!	!	!
1.D\	-phos.	-num	-vo.	.
!!LO:LB:g=original
=11	=11	=11	=11	=11
*M3/2	*	*	*	*
2D/	.	.	3. Un-	4. Hu-
2D/	.	.	-de	-jus
2C/	.	.	nec	o-
=12	=12	=12	=12	=12
1.BB-X/	.	.	mor-	-ra-
=13	=13	=13	=13	=13
1.AA/	.	.	-tem	-tu
=14	=14	=14	=14	=14
2.F\	.	.	nec	De-
4FF/	.	.	a-	-us
2BB-X/	.	.	-mi-	al-
=15	=15	=15	=15	=15
2AA/	.	.	-ca	-me
1C/	.	.	mor-	no-
=16	=16	=16	=16	=16
1.FF/	.	.	-tis	-bis
=17	=17	=17	=17	=17
2F\	.	.	mil-	de-
2F\	.	.	-le	-bi-
2E\	.	.	pae-	.
=18	=18	=18	=18	=18
1D\	.	.	-na-	-tas
2C#X/	.	.	-rum	pae-
=19	=19	=19	=19	=19
2D/	.	.	ge-	-nas
4D/	.	.	-ne-	sce-
4C/	.	.	-ra	.
2BBn/	.	.	ex-	-le-
=20	=20	=20	=20	=20
2AA/	.	.	-pa-	-rum
1E\	.	.	-ve-	re-
=21	=21	=21	=21	=21
1.AA/	.	.	-ſcens	-mit-
=22	=22	=22	=22	=22
2A\	.	.	San-	-te
2F\	.	.	-gui-	ut
4G\	.	.	-ne	Ti-
4G\	.	.	ef-	-bi
=23	=23	=23	=23	=23
1C/	.	.	-fu-	pu-
2C/	.	.	-ſo	-ro
!!LO:LB:g=original
=24	=24	=24	=24	=24
2.C/	.	.	me-	re-
4D\	.	.	-ru-	-ſo-
2E\	.	.	-it	-ne-
=25	=25	=25	=25	=25
2F\	.	.	se-	-mus
2G\	.	.	-re-	.
2GG/	.	.	.	al-
=26	=26	=26	=26	=26
2C,</	.	.	-num	-mum
2c\	.	.	scan-	pe-
4B-X\	.	.	.	.
4A\	.	.	.	.
=27	=27	=27	=27	=27
1G\	.	.	.	.
4F\	.	.	.	.
4E\	.	.	.	.
=28	=28	=28	=28	=28
2.D\	.	.	.	.
4E\	.	.	.	.
4F\	.	.	.	.
4G\	.	.	.	.
=29	=29	=29	=29	=29
2.A\	.	.	.	.
4F\	.	.	.	.
2Bn\	.	.	-de-	-cto-
=30	=30	=30	=30	=30
2G\	.	.	-re	-re
2A\	.	.	coe-	Car-
2AA/	.	.	.	.
=31	=31	=31	=31	=31
!	!	!	!	!
0.D\;	.	.	-lum.	-men.
==	==	==	==	==
*-	*-	*-	*-	*-
!!!RDF**kern: > = above
!!!RDF**kern: < = below
!!!EED: Leszek Kubiak
!!!EEV: 2021-02-18
!!!ENC: Krzysztof Stępień
!!!END: 2021-02-12
!!!YEC: Copyright 2022 Narodowy Instytut Fryderyka Chopina (https://polishscores.org)
!!!YEM: Licence CC BY 4.0 (https://creativecommons.org/licenses/by/4.0)
